X: 3
T: No_101_Stomp_Dance_Song_(c).krn
N: Derived from No_101_Stomp_Dance_Song_(c).krn
%%abc-version 2.0
%%abcx-abcm2ps-target-version 5.9.1 (29 Sep 2008)
%%abc-creator hum2abc beta
%%abcx-conversion-date 2019/03/15 08:38:45
%%humdrum-veritas 3579374228
%%humdrum-veritas-data 478955119
%%linebreak <none>
%%barnumbers 0
L: 1/16
M: 2/4
K: F clef=bass
[K:clef=bass][M:2/4]C3A, G,F,3 [I:setbarnb 2]| 
F,3F,F,4 | 
F,3C, G,F,3 | 
F,3F,F,4 | 
C3A, G,F,3 | 
F,3F,F,4 | 
(G,F,)D,D, G,F,3 | 
F,3F,F,4 :|]  
z8 | 
F3FF4 | 
F3C CC3 | 
C(F2D) C(C3 ||  
[M:3/4]A,)A,3 F,F,2F,F,4 ]|:  
[M:2/4]C3D (C3G,) | 
B,3G,F,4 ||  
[M:3/4]F2FG(F6D2) | 
FFD2 CC3 C2 z2 ||  
[M:2/4](F2(3:2:2D)C2 (C2(3:2:2A,)A,2 | 
(3A,2(A,2F,2)F,4 :|]  
C3A, G,F,3 | 
F,3F,F,4 | 
F,3C, G,F,3 | 
F,3F,F,4 |]  



